; generated by Slic3r 1.3.0 on 2024-09-18 at 21:16:32

; external perimeters extrusion width = 0.55mm (4.37mm^3/s)
; perimeters extrusion width = 0.70mm (11.44mm^3/s)
; infill extrusion width = 0.62mm (13.45mm^3/s)
; solid infill extrusion width = 0.70mm (3.81mm^3/s)
; top infill extrusion width = 0.70mm (2.86mm^3/s)

M107
M104 S200 ; set temperature
G28 ; home all axes
G1 Z5 F5000 ; lift nozzle

; Filament gcode

M109 S200 ; set temperature and wait for it to be reached
G21 ; set units to millimeters
G90 ; use absolute coordinates
M82 ; use absolute distances for extrusion
G92 E0
G1 Z0.350 F7800.000
G1 E-2.00000 F2400.00000
G92 E0
G1 X84.284 Y66.996 F7800.000
G1 E2.00000 F2400.00000
G1 F1800
G1 X84.903 Y66.282 E2.02925
G1 X86.417 Y64.769 E2.09547
G1 X87.131 Y64.150 E2.12471
G1 X88.844 Y62.867 E2.19093
G1 X89.639 Y62.356 E2.22018
G1 X91.519 Y61.330 E2.28643
G1 X92.377 Y60.938 E2.31563
G1 X94.383 Y60.190 E2.38187
G1 X95.290 Y59.924 E2.41111
G1 X97.382 Y59.469 E2.47736
G1 X98.317 Y59.334 E2.50658
G1 X100.452 Y59.181 E2.57281
G1 X101.396 Y59.181 E2.60204
G1 X103.531 Y59.334 E2.66827
G1 X104.467 Y59.469 E2.69751
G1 X106.553 Y59.922 E2.76356
G1 X107.464 Y60.190 E2.79295
G1 X109.470 Y60.938 E2.85920
G1 X110.330 Y61.331 E2.88844
G1 X112.209 Y62.356 E2.95467
G1 X113.004 Y62.867 E2.98391
G1 X114.717 Y64.150 E3.05013
G1 X115.431 Y64.769 E3.07938
G1 X116.945 Y66.282 E3.14560
G1 X117.564 Y66.996 E3.17484
G1 X118.846 Y68.710 E3.24106
G1 X119.357 Y69.505 E3.27031
G1 X120.383 Y71.383 E3.33653
G1 X120.776 Y72.243 E3.36578
G1 X121.524 Y74.248 E3.43200
G1 X121.790 Y75.155 E3.46124
G1 X122.245 Y77.248 E3.52749
G1 X122.379 Y78.182 E3.55671
G1 X122.532 Y80.317 E3.62293
G1 X122.541 Y81.106 E3.64734
G1 X120.664 Y120.362 E4.86337
G1 X120.579 Y121.429 E4.89647
G1 X120.423 Y122.620 E4.93367
G1 X120.201 Y123.802 E4.97086
G1 X119.913 Y124.969 E5.00806
G1 X119.561 Y126.119 E5.04527
G1 X119.145 Y127.247 E5.08245
G1 X118.668 Y128.350 E5.11965
G1 X117.953 Y129.748 E5.16824
G1 X117.338 Y130.781 E5.20543
G1 X116.878 Y131.477 E5.23124
G1 X116.187 Y132.424 E5.26753
G1 X115.407 Y133.378 E5.30563
G1 X114.595 Y134.263 E5.34283
G1 X113.461 Y135.350 E5.39141
G1 X112.542 Y136.125 E5.42861
G1 X111.582 Y136.848 E5.46580
G1 X110.557 Y137.531 E5.50390
G1 X109.547 Y138.127 E5.54020
G1 X108.810 Y138.517 E5.56600
G1 X107.722 Y139.029 E5.60320
G1 X106.607 Y139.479 E5.64039
G1 X105.117 Y139.972 E5.68898
G1 X104.311 Y140.190 E5.71481
G1 X103.137 Y140.449 E5.75200
G1 X101.951 Y140.642 E5.78918
G1 X100.756 Y140.769 E5.82637
G1 X99.187 Y140.835 E5.87496
G1 X97.985 Y140.808 E5.91216
G1 X96.786 Y140.714 E5.94935
G1 X95.595 Y140.554 E5.98655
G1 X94.415 Y140.328 E6.02373
G1 X93.603 Y140.133 E6.04955
G1 X92.449 Y139.796 E6.08675
G1 X91.315 Y139.397 E6.12394
G1 X90.232 Y138.946 E6.16024
G1 X88.798 Y138.239 E6.20972
G1 X88.071 Y137.829 E6.23554
G1 X87.054 Y137.189 E6.27273
G1 X86.073 Y136.493 E6.30993
G1 X85.133 Y135.744 E6.34712
G1 X84.236 Y134.944 E6.38432
G1 X83.405 Y134.116 E6.42062
G1 X82.346 Y132.918 E6.47010
G1 X81.610 Y131.967 E6.50729
G1 X80.928 Y130.977 E6.54449
G1 X80.302 Y129.951 E6.58168
G1 X79.902 Y129.219 E6.60749
G1 X79.226 Y127.802 E6.65608
G1 X78.780 Y126.685 E6.69327
G1 X78.396 Y125.546 E6.73047
G1 X78.167 Y124.744 E6.75627
G1 X77.898 Y123.603 E6.79257
G1 X77.682 Y122.390 E6.83067
G1 X77.508 Y120.830 E6.87925
G1 X77.461 Y119.997 E6.90506
G1 X77.451 Y118.795 E6.94225
G1 X79.307 Y80.468 E8.12954
G1 X79.469 Y78.182 E8.20045
G1 X79.603 Y77.247 E8.22968
G1 X80.058 Y75.155 E8.29590
G1 X80.324 Y74.249 E8.32514
G1 X81.072 Y72.243 E8.39137
G1 X81.465 Y71.384 E8.42059
G1 X82.491 Y69.505 E8.48683
G1 X83.002 Y68.710 E8.51608
G1 X84.239 Y67.056 E8.57998
G1 E6.57998 F2400.00000
G92 E0
G1 X102.594 Y119.986 F7800.000
G1 E2.00000 F2400.00000
G1 F1800
G1 X102.399 Y120.601 E2.01997
G1 X102.036 Y121.265 E2.04337
G1 X101.623 Y121.761 E2.06335
G1 X101.035 Y122.237 E2.08675
G1 X100.465 Y122.539 E2.10672
G1 X99.741 Y122.756 E2.13012
G1 X99.098 Y122.819 E2.15009
G1 X98.345 Y122.746 E2.17349
G1 X97.727 Y122.560 E2.19346
G1 X97.061 Y122.208 E2.21678
G1 X96.557 Y121.800 E2.23682
G1 X96.073 Y121.219 E2.26024
G1 X95.763 Y120.653 E2.28020
G1 X95.536 Y119.934 E2.30353
G1 X95.464 Y119.290 E2.32357
G1 X95.527 Y118.536 E2.34699
G1 X95.704 Y117.916 E2.36695
G1 X96.047 Y117.245 E2.39027
G1 X96.433 Y116.753 E2.40962
G1 X96.895 Y116.334 E2.42892
G1 X97.562 Y115.932 E2.45301
G1 X98.323 Y115.680 E2.47779
G1 X99.095 Y115.605 E2.50181
G1 X99.740 Y115.667 E2.52186
G1 X100.486 Y115.892 E2.54597
G1 X101.164 Y116.275 E2.57006
G1 X101.637 Y116.680 E2.58934
G1 X102.036 Y117.159 E2.60862
G1 X102.410 Y117.842 E2.63272
G1 X102.624 Y118.591 E2.65681
G1 X102.677 Y119.234 E2.67679
G1 X102.602 Y119.911 E2.69786
G1 X101.979 Y119.856 F7800.000
G1 F1800
G1 X101.822 Y120.355 E2.71406
G1 X101.517 Y120.912 E2.73369
G1 X101.182 Y121.314 E2.74989
G1 X100.689 Y121.713 E2.76951
G1 X100.227 Y121.958 E2.78571
G1 X99.619 Y122.140 E2.80534
G1 X99.098 Y122.191 E2.82154
G1 X98.467 Y122.130 E2.84116
G1 X97.966 Y121.979 E2.85735
G1 X97.407 Y121.684 E2.87691
G1 X96.998 Y121.353 E2.89317
G1 X96.592 Y120.866 E2.91281
G1 X96.341 Y120.406 E2.92900
G1 X96.150 Y119.804 E2.94855
G1 X96.092 Y119.281 E2.96482
G1 X96.144 Y118.649 E2.98445
G1 X96.288 Y118.146 E3.00065
G1 X96.576 Y117.583 E3.02020
G1 X96.892 Y117.181 E3.03604
G1 X97.270 Y116.838 E3.05183
G1 X97.825 Y116.504 E3.07188
G1 X98.453 Y116.296 E3.09235
G1 X99.096 Y116.233 E3.11232
G1 X99.619 Y116.283 E3.12859
G1 X100.240 Y116.470 E3.14865
G1 X100.804 Y116.789 E3.16869
G1 X101.191 Y117.121 E3.18447
G1 X101.517 Y117.512 E3.20025
G1 X101.828 Y118.081 E3.22030
G1 X102.006 Y118.704 E3.24034
G1 X102.050 Y119.226 E3.25654
G1 X101.988 Y119.781 E3.27385
G1 X101.365 Y119.726 F7800.000
G1 F1800
G1 X101.244 Y120.109 E3.28627
G1 X100.998 Y120.558 E3.30212
G1 X100.741 Y120.867 E3.31455
G1 X100.343 Y121.189 E3.33040
G1 X99.988 Y121.377 E3.34282
G1 X99.498 Y121.524 E3.35867
G1 X99.098 Y121.563 E3.37110
G1 X98.588 Y121.514 E3.38694
G1 X98.204 Y121.398 E3.39937
G1 X97.753 Y121.160 E3.41515
G1 X97.439 Y120.906 E3.42764
G1 X97.111 Y120.512 E3.44349
G1 X96.918 Y120.160 E3.45592
G1 X96.764 Y119.674 E3.47170
G1 X96.719 Y119.273 E3.48419
G1 X96.762 Y118.762 E3.50004
G1 X96.872 Y118.376 E3.51246
G1 X97.104 Y117.922 E3.52825
G1 X97.351 Y117.608 E3.54059
G1 X97.645 Y117.342 E3.55286
G1 X98.088 Y117.075 E3.56886
G1 X98.583 Y116.911 E3.58502
G1 X99.096 Y116.860 E3.60095
G1 X99.498 Y116.899 E3.61344
G1 X99.993 Y117.048 E3.62945
G1 X100.443 Y117.303 E3.64545
G1 X100.744 Y117.561 E3.65772
G1 X100.998 Y117.866 E3.66999
G1 X101.246 Y118.319 E3.68600
G1 X101.388 Y118.817 E3.70200
G1 X101.422 Y119.217 E3.71442
G1 X101.373 Y119.651 E3.72795
G1 X101.365 Y119.726 F7800.000
G1 E1.72795 F2400.00000
G92 E0
G1 X112.200 Y121.862 F7800.000
G1 E2.00000 F2400.00000
G1 F1800
G1 X111.955 Y122.889 E2.03269
G1 X111.731 Y123.600 E2.05574
G1 X111.468 Y124.297 E2.07879
G1 X111.166 Y124.978 E2.10184
G1 X110.827 Y125.641 E2.12489
G1 X110.451 Y126.285 E2.14794
G1 X110.041 Y126.906 E2.17099
G1 X109.613 Y127.482 E2.19319
G1 X109.118 Y128.077 E2.21714
G1 X108.611 Y128.621 E2.24014
G1 X108.073 Y129.136 E2.26319
G1 X107.508 Y129.621 E2.28624
G1 X106.917 Y130.073 E2.30925
G1 X106.277 Y130.508 E2.33320
G1 X105.662 Y130.878 E2.35539
G1 X105.004 Y131.226 E2.37844
G1 X104.327 Y131.537 E2.40149
G1 X103.634 Y131.811 E2.42454
G1 X102.926 Y132.045 E2.44759
G1 X102.207 Y132.239 E2.47065
G1 X101.479 Y132.393 E2.49370
G1 X100.742 Y132.507 E2.51675
G1 X100.001 Y132.579 E2.53980
G1 X99.257 Y132.610 E2.56285
G1 X98.512 Y132.600 E2.58590
G1 X97.768 Y132.548 E2.60895
G1 X97.031 Y132.455 E2.63195
G1 X96.270 Y132.315 E2.65590
G1 X95.572 Y132.147 E2.67810
G1 X94.859 Y131.932 E2.70115
G1 X94.158 Y131.679 E2.72420
G1 X93.473 Y131.387 E2.74725
G1 X92.805 Y131.057 E2.77030
G1 X92.181 Y130.704 E2.79249
G1 X91.528 Y130.287 E2.81644
G1 X90.925 Y129.852 E2.83945
G1 X90.347 Y129.383 E2.86250
G1 X89.795 Y128.882 E2.88555
G1 X89.272 Y128.352 E2.90860
G1 X88.779 Y127.793 E2.93165
G1 X88.318 Y127.208 E2.95470
G1 X87.890 Y126.598 E2.97775
G1 X87.497 Y125.965 E3.00080
G1 X87.140 Y125.312 E3.02385
G1 X86.819 Y124.639 E3.04690
G1 X86.536 Y123.950 E3.06995
G1 X86.292 Y123.246 E3.09300
G1 X86.096 Y122.556 E3.11519
G1 X85.923 Y121.802 E3.13915
G1 X85.800 Y121.069 E3.16215
G1 X85.717 Y120.328 E3.18520
G1 X85.676 Y119.584 E3.20825
G1 X85.676 Y118.839 E3.23130
G1 X85.717 Y118.096 E3.25435
G1 X85.797 Y117.383 E3.27654
G1 X85.924 Y116.619 E3.30050
G1 X86.088 Y115.894 E3.32350
G1 X86.292 Y115.178 E3.34655
G1 X86.536 Y114.474 E3.36960
G1 X86.819 Y113.785 E3.39265
G1 X87.140 Y113.112 E3.41570
G1 X87.497 Y112.458 E3.43875
G1 X87.890 Y111.826 E3.46180
G1 X88.302 Y111.238 E3.48400
G1 X88.780 Y110.629 E3.50795
G1 X89.272 Y110.072 E3.53095
G1 X89.795 Y109.541 E3.55400
G1 X90.347 Y109.041 E3.57705
G1 X90.925 Y108.572 E3.60010
G1 X91.529 Y108.136 E3.62315
G1 X92.157 Y107.734 E3.64620
G1 X92.805 Y107.367 E3.66925
G1 X93.473 Y107.037 E3.69230
G1 X94.158 Y106.745 E3.71535
G1 X94.859 Y106.491 E3.73840
G1 X95.572 Y106.277 E3.76145
G1 X96.296 Y106.103 E3.78450
G1 X97.029 Y105.969 E3.80755
G1 X97.768 Y105.876 E3.83061
G1 X98.512 Y105.824 E3.85366
G1 X99.256 Y105.814 E3.87671
G1 X99.973 Y105.844 E3.89890
G1 X100.744 Y105.917 E3.92285
G1 X101.479 Y106.031 E3.94586
G1 X102.207 Y106.185 E3.96891
G1 X102.926 Y106.379 E3.99196
G1 X103.634 Y106.613 E4.01501
G1 X104.327 Y106.886 E4.03806
G1 X105.004 Y107.198 E4.06111
G1 X105.662 Y107.546 E4.08416
G1 X106.300 Y107.930 E4.10721
G1 X106.916 Y108.350 E4.13026
G1 X107.508 Y108.802 E4.15331
G1 X108.073 Y109.287 E4.17636
G1 X108.591 Y109.784 E4.19855
G1 X109.120 Y110.349 E4.22250
G1 X109.596 Y110.920 E4.24551
G1 X110.041 Y111.518 E4.26856
G1 X110.451 Y112.139 E4.29161
G1 X110.827 Y112.783 E4.31466
G1 X111.166 Y113.446 E4.33771
G1 X111.468 Y114.127 E4.36076
G1 X111.731 Y114.824 E4.38381
G1 X111.955 Y115.534 E4.40686
G1 X112.140 Y116.256 E4.42991
G1 X112.284 Y116.987 E4.45296
G1 X112.387 Y117.725 E4.47601
G1 X112.449 Y118.467 E4.49906
G1 X112.470 Y119.212 E4.52211
G1 X112.449 Y119.957 E4.54516
G1 X112.387 Y120.699 E4.56821
G1 X112.284 Y121.437 E4.59126
G1 X112.215 Y121.788 E4.60234
G1 X112.813 Y121.982 F7800.000
G1 F1800
G1 X112.750 Y122.306 E4.61253
G1 X112.556 Y123.061 E4.63665
G1 X112.322 Y123.805 E4.66078
G1 X112.046 Y124.534 E4.68491
G1 X111.730 Y125.247 E4.70903
G1 X111.375 Y125.941 E4.73316
G1 X110.982 Y126.614 E4.75728
G1 X110.552 Y127.265 E4.78141
G1 X110.104 Y127.868 E4.80466
G1 X109.587 Y128.490 E4.82969
G1 X109.056 Y129.060 E4.85378
G1 X108.493 Y129.599 E4.87791
G1 X107.901 Y130.107 E4.90204
G1 X107.283 Y130.580 E4.92613
G1 X106.613 Y131.034 E4.95116
G1 X105.970 Y131.422 E4.97441
G1 X105.281 Y131.787 E4.99854
G1 X104.572 Y132.112 E5.02266
G1 X103.847 Y132.398 E5.04679
G1 X103.106 Y132.643 E5.07091
G1 X102.354 Y132.847 E5.09504
G1 X101.591 Y133.008 E5.11916
G1 X100.820 Y133.127 E5.14329
G1 X100.044 Y133.203 E5.16742
G1 X99.265 Y133.235 E5.19154
G1 X98.486 Y133.224 E5.21567
G1 X97.708 Y133.170 E5.23979
G1 X96.935 Y133.073 E5.26389
G1 X96.140 Y132.926 E5.28892
G1 X95.409 Y132.750 E5.31217
G1 X94.662 Y132.526 E5.33629
G1 X93.929 Y132.260 E5.36042
G1 X93.212 Y131.955 E5.38455
G1 X92.513 Y131.609 E5.40867
G1 X91.859 Y131.240 E5.43192
G1 X91.177 Y130.804 E5.45695
G1 X90.545 Y130.348 E5.48105
G1 X89.940 Y129.857 E5.50517
G1 X89.362 Y129.334 E5.52930
G1 X88.815 Y128.778 E5.55342
G1 X88.299 Y128.194 E5.57755
G1 X87.816 Y127.581 E5.60168
G1 X87.369 Y126.943 E5.62580
G1 X86.957 Y126.281 E5.64993
G1 X86.583 Y125.596 E5.67405
G1 X86.247 Y124.893 E5.69818
G1 X85.952 Y124.171 E5.72230
G1 X85.696 Y123.434 E5.74643
G1 X85.490 Y122.712 E5.76968
G1 X85.310 Y121.923 E5.79471
G1 X85.181 Y121.155 E5.81880
G1 X85.094 Y120.380 E5.84293
G1 X85.051 Y119.602 E5.86706
G1 X85.051 Y118.822 E5.89118
G1 X85.094 Y118.044 E5.91531
G1 X85.178 Y117.297 E5.93856
G1 X85.310 Y116.499 E5.96359
G1 X85.482 Y115.739 E5.98768
G1 X85.696 Y114.989 E6.01181
G1 X85.952 Y114.253 E6.03593
G1 X86.247 Y113.531 E6.06006
G1 X86.583 Y112.827 E6.08419
G1 X86.957 Y112.143 E6.10831
G1 X87.369 Y111.481 E6.13244
G1 X87.800 Y110.866 E6.15569
G1 X88.299 Y110.230 E6.18071
G1 X88.815 Y109.646 E6.20481
G1 X89.362 Y109.090 E6.22894
G1 X89.940 Y108.566 E6.25306
G1 X90.545 Y108.075 E6.27719
G1 X91.177 Y107.619 E6.30131
G1 X91.834 Y107.198 E6.32544
G1 X92.513 Y106.815 E6.34957
G1 X93.212 Y106.469 E6.37369
G1 X93.929 Y106.163 E6.39782
G1 X94.662 Y105.898 E6.42194
G1 X95.409 Y105.674 E6.44607
G1 X96.167 Y105.491 E6.47019
G1 X96.934 Y105.351 E6.49432
G1 X97.708 Y105.254 E6.51845
G1 X98.486 Y105.199 E6.54257
G1 X99.265 Y105.189 E6.56670
G1 X100.016 Y105.220 E6.58995
G1 X100.821 Y105.297 E6.61497
G1 X101.591 Y105.416 E6.63907
G1 X102.354 Y105.577 E6.66320
G1 X103.106 Y105.781 E6.68732
G1 X103.847 Y106.026 E6.71145
G1 X104.572 Y106.311 E6.73557
G1 X105.281 Y106.637 E6.75970
G1 X105.970 Y107.002 E6.78383
G1 X106.638 Y107.404 E6.80795
G1 X107.282 Y107.843 E6.83208
G1 X107.901 Y108.317 E6.85620
G1 X108.493 Y108.824 E6.88033
G1 X109.036 Y109.345 E6.90358
G1 X109.588 Y109.935 E6.92861
G1 X110.087 Y110.533 E6.95270
G1 X110.552 Y111.159 E6.97683
G1 X110.982 Y111.809 E7.00096
G1 X111.375 Y112.483 E7.02508
G1 X111.730 Y113.177 E7.04921
G1 X112.046 Y113.890 E7.07333
G1 X112.322 Y114.619 E7.09746
G1 X112.556 Y115.363 E7.12158
G1 X112.750 Y116.118 E7.14571
G1 X112.900 Y116.883 E7.16984
G1 X113.008 Y117.655 E7.19396
G1 X113.073 Y118.433 E7.21809
G1 X113.095 Y119.212 E7.24221
G1 X113.073 Y119.991 E7.26634
G1 X113.008 Y120.768 E7.29046
G1 X112.900 Y121.541 E7.31459
G1 X112.828 Y121.909 E7.32620
G1 X113.426 Y122.103 F7800.000
G1 F1800
G1 X113.359 Y122.443 E7.33693
G1 X113.158 Y123.233 E7.36213
G1 X112.912 Y124.009 E7.38733
G1 X112.624 Y124.771 E7.41253
G1 X112.294 Y125.516 E7.43774
G1 X111.924 Y126.241 E7.46294
G1 X111.513 Y126.944 E7.48814
G1 X111.064 Y127.624 E7.51334
G1 X110.595 Y128.254 E7.53765
G1 X110.056 Y128.903 E7.56375
G1 X109.501 Y129.499 E7.58894
G1 X108.913 Y130.062 E7.61414
G1 X108.295 Y130.593 E7.63934
G1 X107.648 Y131.088 E7.66453
G1 X106.950 Y131.561 E7.69064
G1 X106.277 Y131.966 E7.71494
G1 X105.557 Y132.347 E7.74015
G1 X104.817 Y132.687 E7.76535
G1 X104.060 Y132.986 E7.79055
G1 X103.286 Y133.242 E7.81575
G1 X102.500 Y133.455 E7.84095
G1 X101.703 Y133.623 E7.86615
G1 X100.898 Y133.747 E7.89135
G1 X100.088 Y133.826 E7.91655
G1 X99.274 Y133.860 E7.94175
G1 X98.459 Y133.849 E7.96695
G1 X97.647 Y133.792 E7.99216
G1 X96.839 Y133.691 E8.01735
G1 X96.010 Y133.538 E8.04345
G1 X95.246 Y133.354 E8.06776
G1 X94.466 Y133.119 E8.09296
G1 X93.700 Y132.842 E8.11816
G1 X92.951 Y132.522 E8.14336
G1 X92.221 Y132.162 E8.16856
G1 X91.537 Y131.775 E8.19287
G1 X90.825 Y131.321 E8.21897
G1 X90.165 Y130.845 E8.24416
G1 X89.533 Y130.332 E8.26936
G1 X88.929 Y129.785 E8.29456
G1 X88.358 Y129.205 E8.31977
G1 X87.819 Y128.594 E8.34497
G1 X87.315 Y127.954 E8.37017
G1 X86.847 Y127.287 E8.39537
G1 X86.417 Y126.596 E8.42057
G1 X86.026 Y125.881 E8.44577
G1 X85.676 Y125.146 E8.47097
G1 X85.367 Y124.392 E8.49617
G1 X85.100 Y123.623 E8.52137
G1 X84.885 Y122.867 E8.54568
G1 X84.697 Y122.045 E8.57178
G1 X84.562 Y121.242 E8.59698
G1 X84.471 Y120.432 E8.62218
G1 X84.426 Y119.619 E8.64738
G1 X84.426 Y118.805 E8.67258
G1 X84.471 Y117.991 E8.69778
G1 X84.558 Y117.211 E8.72209
G1 X84.697 Y116.379 E8.74819
G1 X84.877 Y115.584 E8.77338
G1 X85.100 Y114.801 E8.79858
G1 X85.367 Y114.032 E8.82378
G1 X85.676 Y113.278 E8.84898
G1 X86.026 Y112.543 E8.87418
G1 X86.417 Y111.828 E8.89939
G1 X86.847 Y111.137 E8.92459
G1 X87.298 Y110.493 E8.94890
G1 X87.819 Y109.830 E8.97500
G1 X88.358 Y109.219 E9.00019
G1 X88.929 Y108.639 E9.02539
G1 X89.533 Y108.092 E9.05059
G1 X90.165 Y107.579 E9.07579
G1 X90.826 Y107.102 E9.10099
G1 X91.511 Y106.663 E9.12619
G1 X92.221 Y106.262 E9.15139
G1 X92.951 Y105.901 E9.17660
G1 X93.700 Y105.582 E9.20180
G1 X94.466 Y105.304 E9.22700
G1 X95.246 Y105.070 E9.25220
G1 X96.038 Y104.879 E9.27740
G1 X96.839 Y104.733 E9.30260
G1 X97.647 Y104.631 E9.32780
G1 X98.459 Y104.575 E9.35300
G1 X99.274 Y104.563 E9.37820
G1 X100.059 Y104.596 E9.40251
